src/assets/icons/shapes,fancy,filled-pentagon.svg

<svg width="48" height="48" viewBox="0 0 48 48" fill="none" xmlns="http://www.w3.org/2000/svg">
<path d="M21.6489 4.70821C22.7831 3.88416 23.3502 3.47214 24 3.47214C24.6498 3.47214 25.2169 3.88416 26.3511 4.7082L41.621 15.8024C42.7552 16.6265 43.3223 17.0385 43.5232 17.6565C43.724 18.2746 43.5074 18.9412 43.0741 20.2746L37.2415 38.2254C36.8083 39.5588 36.5917 40.2254 36.066 40.6074C35.5402 40.9894 34.8393 40.9894 33.4373 40.9894H14.5627C13.1607 40.9894 12.4598 40.9894 11.934 40.6074C11.4083 40.2254 11.1917 39.5588 10.7585 38.2254L4.92587 20.2746C4.49264 18.9412 4.27603 18.2746 4.47684 17.6565C4.67765 17.0385 5.24475 16.6265 6.37895 15.8024L21.6489 4.70821Z" fill="black"/>
</svg>

<svg xmlns="http://www.w3.org/2000/svg" width="48" height="48" fill="none" viewBox="0 0 48 48">
  <path fill="#000" d="M21.649 4.708C22.783 3.884 23.35 3.472 24 3.472c.65 0 1.217.412 2.351 1.236l15.27 11.094c1.134.825 1.701 1.236 1.902 1.855.201.618-.016 1.284-.449 2.618l-5.832 17.95c-.434 1.334-.65 2-1.176 2.382-.526.382-1.227.382-2.629.382H14.563c-1.402 0-2.103 0-2.629-.382-.526-.382-.742-1.048-1.175-2.382l-5.833-17.95c-.433-1.334-.65-2-.45-2.618.202-.619.769-1.03 1.903-1.855l15.27-11.094z"/>
</svg>
